img/icon/lenz.svg

<svg width="78" height="79" xmlns="http://www.w3.org/2000/svg"><g fill="none" fill-rule="evenodd"><path d="M37 15c12 0 22 10 22 22 0 4-2 9-4 12l23 23-6 7-23-24c-4 2-8 4-12 4-12 0-22-10-22-22s10-22 22-22zm0 7c8 0 15 7 15 15s-7 15-15 15-15-7-15-15 7-15 15-15z" fill="#59B9FD"/><path d="M37 0c20 0 36 16 36 37 0 6-1 12-4 17l-5-5c1-4 2-8 2-12C66 20 53 7 37 7 20 7 7 20 7 37c0 16 13 29 30 29 4 0 8-1 12-2l5 5c-5 3-11 4-17 4C16 73 0 57 0 37 0 16 16 0 37 0z" fill="#2B2A29"/></g></svg>

<svg width="78px" height="79px" viewBox="0 0 78 79" xmlns="http://www.w3.org/2000/svg">
    <g id="Page-1" stroke="none" stroke-width="1" fill="none" fill-rule="evenodd">
	    <path d="M37,15 C49,15 59,25 59,37 C59,41 57,46 55,49 L78,72 L72,79 L49,55 C45,57 41,59 37,59 C25,59 15,49 15,37 C15,25 25,15 37,15 Z M37,22 C45,22 52,29 52,37 C52,45 45,52 37,52 C29,52 22,45 22,37 C22,29 29,22 37,22 Z" id="Shape" fill="#59B9FD"></path>
	    <path d="M37,0 C57,0 73,16 73,37 C73,43 72,49 69,54 L64,49 C65,45 66,41 66,37 C66,20 53,7 37,7 C20,7 7,20 7,37 C7,53 20,66 37,66 C41,66 45,65 49,64 L54,69 C49,72 43,73 37,73 C16,73 0,57 0,37 C0,16 16,0 37,0 Z" id="Shape" fill="#2B2A29"></path>
    </g>
</svg>
